src/assets/svg/google.svg

<svg width="36" height="36" viewBox="0 0 40 40"><path d="M40 19.9998C40 15.3727 38.3955 10.8888 35.4601 7.31203C32.5247 3.73526 28.4399 1.28696 23.9017 0.384294C19.3635 -0.518371 14.6527 0.180446 10.5719 2.36168C6.49121 4.5429 3.29304 8.07159 1.52236 12.3465C-0.248326 16.6214 -0.481969 21.378 0.861239 25.8058C2.20445 30.2337 5.0414 34.0588 8.88871 36.6294C12.736 39.2001 17.3557 40.3572 21.9605 39.9036C26.5653 39.4501 30.8704 37.4139 34.1422 34.142C35.9994 32.2848 37.4726 30.08 38.4776 27.6535C39.4827 25.227 40 22.6263 40 19.9998Z" fill="#F3F2FA"></path><path d="M18.5021 11.9202C17.6843 12.4536 16.8221 12.898 15.9688 13.378L7.2932 18.3024C7.19325 18.3846 7.07388 18.4397 6.94653 18.4624L6.83098 18.4091C5.57729 18.0609 4.41133 17.4517 3.4095 16.6214C2.40767 15.7912 1.59258 14.7586 1.01765 13.5913C0.231514 12.0341 -0.109892 10.2901 0.0309792 8.55135C0.0554834 8.50361 0.073423 8.45278 0.0843121 8.40024C0.134213 7.70767 0.28082 7.0255 0.519867 6.37358C1.00737 4.91504 1.8474 3.5994 2.9654 2.54343C4.0834 1.48745 5.44479 0.723804 6.92876 0.320253C7.82474 0.101534 8.74426 -0.00594165 9.66653 0.00025359C11.5066 0.0537038 13.2907 0.645521 14.7979 1.70247C16.3051 2.75942 17.4694 4.2351 18.1465 5.94691C18.2621 6.24913 18.3688 6.56024 18.4843 6.8358C18.727 7.83006 18.8317 8.85299 18.7954 9.87579C18.7706 10.5658 18.6723 11.2511 18.5021 11.9202ZM9.27542 15.2713C10.4353 15.3023 11.5784 14.9891 12.5606 14.3713C13.5428 13.7534 14.32 12.8586 14.7943 11.7997C15.2686 10.7407 15.4188 9.56502 15.2258 8.42085C15.0329 7.27667 14.5055 6.21525 13.7101 5.37041C12.9148 4.52556 11.8871 3.93514 10.7566 3.67357C9.62612 3.412 8.44352 3.49101 7.3579 3.90063C6.27228 4.31025 5.33225 5.03214 4.65634 5.97528C3.98042 6.91842 3.5989 8.04057 3.55987 9.20024C3.5326 9.97513 3.65921 10.7477 3.93238 11.4734C4.20555 12.1991 4.61986 12.8634 5.15135 13.4279C5.68284 13.9925 6.32097 14.4461 7.02884 14.7625C7.73672 15.0789 8.50029 15.2518 9.27542 15.2713Z" transform="translate(12.5735 11.04)" fill="#FED01B"></path><path d="M1.75111 0.00888908C1.6075 1.74683 1.94582 3.49072 2.72889 5.04888C3.30187 6.21684 4.11515 7.25057 5.11543 8.08235C6.11572 8.91413 7.28045 9.52521 8.53333 9.87554L8.64889 9.92887L4.44444 12.3378L2.51556 13.4311C2.12155 13.6884 1.64943 13.7986 1.18222 13.7422C0.88813 13.6861 0.620108 13.5362 0.418229 13.3151C0.21635 13.094 0.0914572 12.8135 0.0622222 12.5155C0.0225565 12.3015 0.0017363 12.0843 2.71267e-07 11.8666C2.71267e-07 7.97925 2.71267e-07 4.08888 2.71267e-07 0.195555C2.71267e-07 0.133333 2.71267e-07 0.0622221 2.71267e-07 0L1.75111 0.00888908Z" transform="translate(10.8623 19.582)" fill="#F34C23"></path><path d="M1.77778 12.077H-3.39084e-07C-3.39084e-07 8.61039 -3.39084e-07 5.13484 -3.39084e-07 1.67706C-3.39084e-07 0.201511 1.11111 -0.411821 2.4 0.2904C4.48 1.41929 6.52444 2.61928 8.62222 3.79262C8.62222 3.79262 8.62222 3.83706 8.68444 3.86373C7.20048 4.26728 5.83908 5.03093 4.72108 6.0869C3.60309 7.14287 2.76306 8.45851 2.27555 9.91705C2.04721 10.5646 1.90961 11.2406 1.86667 11.9259C1.84465 11.9804 1.8147 12.0313 1.77778 12.077Z" transform="translate(10.8356 7.51416)" fill="#F34C23"></path><path d="M0.00888726 5.04888C0.184568 4.38031 0.288857 3.695 0.32 3.00444C0.349419 1.99311 0.241775 0.982449 -1.35634e-07 7.45984e-07C0.737778 0.382222 1.45778 0.799999 2.16889 1.22666C2.36156 1.34916 2.53026 1.5058 2.66667 1.68889C2.87233 1.92386 2.9857 2.22551 2.9857 2.53777C2.9857 2.85004 2.87233 3.15169 2.66667 3.38666C2.48327 3.60107 2.26364 3.78159 2.01778 3.91999L0.00888726 5.04888Z" transform="translate(31.0667 17.9111)" fill="#F45832"></path><path d="M5.73506 11.7528C4.17676 11.7151 2.69728 11.0599 1.62207 9.93134C0.546859 8.80279 -0.0359965 7.29334 0.00172313 5.73505C0.0394428 4.17676 0.694648 2.69727 1.8232 1.62207C2.95175 0.546858 4.46121 -0.0359961 6.0195 0.00172345C7.54723 0.0858504 8.98189 0.762605 10.0184 1.88808C11.0549 3.01355 11.6115 4.49896 11.5698 6.02844C11.5281 7.55792 10.8915 9.01081 9.7952 10.0782C8.69893 11.1455 7.22955 11.7431 5.6995 11.7439L5.73506 11.7528ZM5.88617 4.55283V5.98394C5.88617 6.36616 5.88617 6.36616 5.53061 6.25949C5.34319 6.20222 5.1455 6.18669 4.95144 6.21398C4.75738 6.24128 4.57164 6.31074 4.40729 6.41748C4.24294 6.52423 4.10395 6.66566 4.0001 6.83186C3.89626 6.99806 3.83006 7.18498 3.80617 7.37949C3.79391 7.56392 3.8181 7.74897 3.87736 7.92405C3.93661 8.09914 4.02978 8.26084 4.15152 8.39992C4.27327 8.539 4.42122 8.65274 4.58692 8.73464C4.75263 8.81654 4.93284 8.86501 5.11728 8.87726C5.30171 8.88952 5.48675 8.86533 5.66184 8.80608C5.83693 8.74682 5.99863 8.65366 6.13771 8.53191C6.27679 8.41016 6.39053 8.26221 6.47243 8.09651C6.55434 7.9308 6.6028 7.75059 6.61506 7.56616C6.61506 6.55282 6.61506 5.53949 6.61506 4.53505C6.61506 4.3395 6.66839 4.25949 6.87283 4.26838C7.07728 4.27727 7.44172 4.26838 7.76172 4.26838C8.08172 4.26838 7.99283 4.20616 7.98394 4.04616C7.98394 3.70838 7.98394 3.37061 7.98394 3.03283C7.98394 2.85505 7.93061 2.78394 7.74394 2.79283C7.21061 2.79283 6.67728 2.79283 6.14394 2.79283C5.97506 2.79283 5.92172 2.83727 5.92172 3.01505C5.92172 3.52172 5.92172 4.03727 5.92172 4.54394L5.88617 4.55283Z" transform="translate(16.1138 14.5581)" fill="#FE8C01"></path><path d="M2.11865 1.75111C2.11865 1.23555 2.11865 0.728888 2.11865 0.222222C2.11865 0.0444442 2.17199 -2.0345e-07 2.34087 -2.0345e-07C2.87421 -2.0345e-07 3.40754 -2.0345e-07 3.94088 -2.0345e-07C4.12754 -2.0345e-07 4.18976 0.0622223 4.18088 0.24C4.18088 0.577777 4.18088 0.915554 4.18088 1.25333C4.18088 1.42222 4.11865 1.48444 3.95865 1.47555C3.79865 1.46666 3.38976 1.47555 3.06976 1.47555C2.74976 1.47555 2.81199 1.54666 2.81199 1.74222C2.81199 2.75555 2.81199 3.76888 2.81199 4.77333C2.79973 4.95776 2.75127 5.13797 2.66936 5.30368C2.58746 5.46938 2.47372 5.61733 2.33464 5.73908C2.19556 5.86083 2.03386 5.95399 1.85877 6.01325C1.68369 6.0725 1.49864 6.09669 1.31421 6.08444C1.12977 6.07218 0.949561 6.02371 0.783856 5.94181C0.618151 5.85991 0.470201 5.74617 0.348453 5.60709C0.226705 5.46801 0.133545 5.30631 0.0742886 5.13122C0.0150324 4.95614 -0.00915884 4.77109 0.00309787 4.58666C0.0269895 4.39215 0.0931857 4.20523 0.197035 4.03903C0.300885 3.87283 0.439869 3.7314 0.604221 3.62465C0.768573 3.51791 0.954307 3.44845 1.14837 3.42115C1.34244 3.39386 1.54012 3.40939 1.72754 3.46666C2.0831 3.56444 2.0831 3.56444 2.0831 3.19111C2.0831 2.81777 2.11865 2.23111 2.11865 1.75111Z" transform="translate(19.8813 17.3511)" fill="#FAF5F4"></path></svg>

<?xml version="1.0" encoding="UTF-8" standalone="no"?>
<svg width="36" xmlns="http://www.w3.org/2000/svg" viewBox="0 0 40 40" height="36">
 <path d="m40 20c0-4.627-1.604-9.111-4.54-12.688-2.935-3.5767-7.02-6.025-11.558-6.9277-4.538-0.90267-9.249-0.20385-13.33 1.9774-4.0808 2.1812-7.279 5.7099-9.0496 9.9843-1.7707 4.275-2.0044 9.032-0.66116 13.46s4.1802 8.253 8.0275 10.823c3.8473 2.571 8.4673 3.728 13.071 3.275 4.605-0.454 8.91-2.49 12.182-5.762 1.857-1.857 3.331-4.062 4.336-6.488 1.005-2.427 1.522-5.028 1.522-7.654z" fill="#F3F2FA"/>
 <path fill="#FED01B" d="m18.502 11.92c-0.818 0.534-1.68 0.978-2.533 1.458l-8.6758 4.924c-0.1 0.083-0.2193 0.138-0.3467 0.16l-0.1155-0.053c-1.2537-0.348-2.4197-0.957-3.4215-1.788-1.0018-0.83-1.8169-1.862-2.3919-3.03-0.78609-1.557-1.1275-3.301-0.98662-5.0396 0.024503-0.0478 0.042443-0.0986 0.053332-0.1512 0.049898-0.6925 0.19651-1.3747 0.43556-2.0266 0.48753-1.4586 1.3275-2.7742 2.4455-3.8302s2.4794-1.8196 3.9634-2.2232c0.8959-0.21867 1.8155-0.32614 2.7377-0.31995 1.8405 0.053454 3.6245 0.64527 5.1315 1.7022 1.507 1.057 2.671 2.5327 3.348 4.2445 0.116 0.3022 0.223 0.6133 0.338 0.8889 0.243 0.9943 0.348 2.0172 0.311 3.04-0.024 0.6902-0.123 1.3752-0.293 2.0442zm-9.2266 3.351c1.1596 0.031 2.3026-0.282 3.2856-0.9 0.982-0.618 1.759-1.512 2.233-2.571 0.475-1.059 0.625-2.235 0.432-3.3792-0.193-1.1441-0.72-2.2056-1.516-3.0504-0.795-0.8448-1.823-1.4353-2.953-1.6968-1.1309-0.2616-2.3135-0.1826-3.3991 0.227s-2.0257 1.1315-2.7016 2.0747c-0.6759 0.9431-1.0574 2.0653-1.0964 3.2249-0.0273 0.7749 0.0993 1.5478 0.3725 2.2728 0.2732 0.726 0.6875 1.39 1.219 1.955 0.5314 0.564 1.1696 1.018 1.8774 1.334 0.7079 0.317 1.4715 0.49 2.2466 0.509z" transform="translate(12.574 11.04)"/>
 <path fill="#F34C23" d="m1.7511 0.0088891c-0.1436 1.7379 0.1947 3.4818 0.9778 5.04 0.573 1.1679 1.3863 2.2017 2.3865 3.0335 1.0003 0.8317 2.165 1.4428 3.4179 1.7931l0.1156 0.0534-4.2045 2.4091-1.9288 1.093c-0.394 0.257-0.8662 0.368-1.3334 0.311-0.29407-0.056-0.56209-0.206-0.76397-0.427s-0.32677-0.501-0.35601-0.799c-0.039664-0.214-0.060484-0.432-0.06222-0.649 2.7127e-7 -3.8878 2.7127e-7 -7.7781 2.7127e-7 -11.671v-0.196l1.7511 0.0088891z" transform="translate(10.862 19.582)"/>
 <path fill="#F34C23" d="m1.7778 12.077h-1.7778c-3.3908e-7 -3.4666-3.3908e-7 -6.9422-3.3908e-7 -10.4 0-1.4755 1.1111-2.0888 2.4-1.3866 2.08 1.1289 4.1244 2.3289 6.2222 3.5022 0 0 0 0.0445 0.0622 0.0711-1.4839 0.4036-2.8453 1.1672-3.9633 2.2232s-1.958 2.3716-2.4455 3.8301c-0.2284 0.648-0.366 1.324-0.4089 2.009-0.0221 0.054-0.052 0.105-0.0889 0.151z" transform="translate(10.836 7.5142)"/>
 <path fill="#F45832" d="m0.0088873 5.0489c0.17568-0.6686 0.27997-1.3539 0.31111-2.0445 0.02942-1.0113-0.07822-2.022-0.32-3.0044 0.73778 0.38222 1.4578 0.8 2.1689 1.2267 0.1927 0.1225 0.3614 0.2791 0.4978 0.4622 0.2056 0.235 0.319 0.5366 0.319 0.8489 0 0.3122-0.1134 0.6139-0.319 0.8489-0.1834 0.2144-0.4031 0.3949-0.6489 0.5333l-2.0089 1.1289z" transform="translate(31.067 17.911)"/>
 <path fill="#FE8C01" d="m5.7351 11.753c-1.5583-0.038-3.0378-0.693-4.113-1.8217-1.0752-1.1285-1.6581-2.638-1.6204-4.1963 0.037743-1.5582 0.69295-3.0377 1.8215-4.1129s2.638-1.6581 4.1963-1.6204c1.5277 0.08415 2.9624 0.7609 3.9985 1.8864 1.037 1.1255 1.594 2.6109 1.552 4.1403-0.042 1.5295-0.678 2.9824-1.7748 4.0496-1.0963 1.068-2.5656 1.665-4.0957 1.666l0.0356 0.009zm0.1511-7.2002v1.4311c0 0.3823 0 0.3823-0.3556 0.2756-0.1874-0.0573-0.3851-0.0728-0.5792-0.0455-0.194 0.0273-0.3798 0.0967-0.5441 0.2035-0.1644 0.1067-0.3033 0.2482-0.4072 0.4144-0.1038 0.1662-0.17 0.3531-0.1939 0.5476-0.0123 0.1844 0.0119 0.3695 0.0712 0.5445 0.0592 0.1751 0.1524 0.3368 0.2741 0.4759 0.1218 0.1391 0.2697 0.2528 0.4354 0.3347s0.3459 0.1304 0.5304 0.1427c0.1844 0.0122 0.3695-0.012 0.5445-0.0712 0.1751-0.0593 0.3368-0.1524 0.4759-0.2742 0.1391-0.1217 0.2528-0.2697 0.3347-0.4354s0.1304-0.3459 0.1427-0.5303v-3.0312c0-0.1955 0.0533-0.2755 0.2577-0.2666 0.2045 0.0089 0.5689 0 0.8889 0s0.2311-0.0622 0.2222-0.2222v-1.0134c0-0.1778-0.0533-0.2489-0.24-0.24h-1.6c-0.1688 0-0.2222 0.0445-0.2222 0.2222v1.5289l-0.0355 0.0089z" transform="translate(16.114 14.558)"/>
 <path fill="#FAF5F4" d="m2.1186 1.7511v-1.5289c0-0.17776 0.0534-0.2222 0.2223-0.2222 0.5333-2.0345e-7 1.0666-2.0345e-7 1.6-2.0345e-7 0.1866 0 0.2489 0.062222 0.24 0.24v1.0133c0 0.1689-0.0623 0.2311-0.2223 0.2223-0.16-0.0089-0.5688 0-0.8888 0s-0.2578 0.0711-0.2578 0.2666v3.0311c-0.0123 0.1845-0.0607 0.3647-0.1426 0.5304s-0.1957 0.3136-0.3348 0.4354c-0.139 0.1217-0.3007 0.2149-0.4758 0.2741-0.1751 0.0593-0.3602 0.0835-0.5446 0.0712-0.1844-0.0122-0.36464-0.0607-0.53034-0.1426-0.16571-0.0819-0.31366-0.1956-0.43541-0.3347s-0.21491-0.3008-0.27416-0.4759c-0.059258-0.1751-0.083449-0.3601-0.071192-0.5445 0.023892-0.1945 0.090088-0.3815 0.19394-0.5477 0.10384-0.1662 0.24283-0.3076 0.40718-0.4144 0.16435-0.1067 0.35009-0.1762 0.54418-0.2034 0.194-0.0273 0.3917-0.0118 0.5791 0.0455 0.3556 0.0977 0.3556 0.0977 0.3556-0.2756s0.0355-0.96 0.0355-1.44z" transform="translate(19.881 17.351)"/>
</svg>
